src/resources/icons/calendar.svg

<svg width="20" height="20" viewBox="0 0 20 20" fill="none" xmlns="http://www.w3.org/2000/svg">
<g clip-path="url(#clip0_407_190887)">
<g clip-path="url(#clip1_407_190887)">
<path d="M15 4.16675H4.99998C4.07951 4.16675 3.33331 4.91294 3.33331 5.83341V15.8334C3.33331 16.7539 4.07951 17.5001 4.99998 17.5001H15C15.9205 17.5001 16.6666 16.7539 16.6666 15.8334V5.83341C16.6666 4.91294 15.9205 4.16675 15 4.16675Z" stroke="#121958" stroke-width="1.25" stroke-linecap="round" stroke-linejoin="round"/>
<path d="M13.3333 2.5V5.83333" stroke="#121958" stroke-width="1.25" stroke-linecap="round" stroke-linejoin="round"/>
<path d="M6.66669 2.5V5.83333" stroke="#121958" stroke-width="1.25" stroke-linecap="round" stroke-linejoin="round"/>
<path d="M3.33331 9.16675H16.6666" stroke="#121958" stroke-width="1.25" stroke-linecap="round" stroke-linejoin="round"/>
</g>
</g>
<defs>
<clipPath id="clip0_407_190887">
<rect width="20" height="20" fill="white"/>
</clipPath>
<clipPath id="clip1_407_190887">
<rect width="20" height="20" fill="white"/>
</clipPath>
</defs>
</svg>

<svg xmlns="http://www.w3.org/2000/svg" width="20" height="20" fill="none"><g clip-path="url(#a)"><g clip-path="url(#b)"><path d="M15 4.167H5c-.92 0-1.667.746-1.667 1.666v10c0 .92.747 1.667 1.667 1.667h10c.92 0 1.667-.746 1.667-1.667v-10c0-.92-.747-1.666-1.667-1.666ZM13.333 2.5v3.333M6.667 2.5v3.333M3.333 9.167h13.334"/></g></g><defs><clipPath id="a"><path d="M0 0h20v20H0z"/></clipPath><clipPath id="b"><path d="M0 0h20v20H0z"/></clipPath></defs></svg>
